img/intro/2.svg

<svg width="182" height="199" viewBox="0 0 182 199" fill="none" xmlns="http://www.w3.org/2000/svg">
<g filter="url(#filter0_f_273_66704)">
<path d="M156.692 140.05C160.119 145.643 158.972 151.048 154.119 152.111L79.3234 168.659C74.4695 169.722 67.8144 166.077 64.3865 160.484L11.5362 73.9319C8.14106 68.3194 9.28813 62.9152 14.142 61.8522L88.9165 45.2692C93.7375 44.2256 100.446 47.8858 103.841 53.4982L156.692 140.05Z" fill="#0E0D44" fill-opacity="0.3"/>
</g>
<path fill-rule="evenodd" clip-rule="evenodd" d="M14.0113 51.4363C12.3099 53.7241 12.5098 57.5139 14.7949 61.6177L14.7946 61.6181L15.1319 62.1905L15.1311 62.1915L72.4827 156.384L77.5646 149.482L20.2131 55.2897L20.2138 55.2887L19.8765 54.7162L19.8656 54.731C17.8404 50.8587 17.4719 46.758 19.0703 44.5654L14.0113 51.4363Z" fill="url(#paint0_linear_273_66704)"/>
<path fill-rule="evenodd" clip-rule="evenodd" d="M172.257 142.018L172.064 142.28C172.045 142.301 172.027 142.322 172.008 142.343L172.008 142.343C171.934 142.425 171.861 142.507 171.801 142.593L171.797 142.6C171.624 142.753 171.451 142.905 171.311 143.039L166.229 149.941C166.317 149.864 166.395 149.791 166.474 149.719C166.553 149.647 166.632 149.575 166.72 149.498L166.791 149.401C166.833 149.348 166.88 149.297 166.926 149.245C166.999 149.164 167.072 149.082 167.132 148.995L167.133 148.995L167.132 148.997L172.214 142.095C172.247 142.075 172.257 142.018 172.257 142.018ZM171.256 143.018L166.174 149.92C166 150.074 165.804 150.189 165.575 150.324L165.573 150.327C165.343 150.462 165.091 150.559 164.839 150.657L164.839 150.657L169.921 143.755C170.172 143.658 170.424 143.561 170.653 143.426L170.655 143.423C170.885 143.288 171.082 143.172 171.256 143.018ZM169.921 143.754L164.839 150.656C164.556 150.772 164.217 150.869 163.889 150.91L163.886 150.914L88.0385 165.675L88.0361 165.678L88.0033 165.698L88.0743 165.602L88.0029 165.697C87.4864 165.795 86.925 165.817 86.3636 165.84L86.3788 165.819C85.4904 165.789 84.0338 165.483 83.0219 165.114L82.9961 165.149C82.9164 165.122 82.8262 165.093 82.7284 165.06C82.1593 164.873 81.3334 164.601 80.8447 164.259C80.486 164.077 80.1191 163.873 79.7741 163.656L84.8559 156.754C85.2359 156.993 85.6425 157.217 86.0353 157.411L86.1389 157.282L86.2336 157.338L86.2337 157.338L86.234 157.338C86.7356 157.635 87.2843 157.959 87.8133 158.158L87.9104 158.037C89.0716 158.433 90.3989 158.885 91.4786 158.918L91.4635 158.938C92.0056 158.951 92.611 158.882 93.1053 158.793L93.118 158.776L93.1204 158.773L168.963 144.013L168.966 144.008C169.18 143.982 169.388 143.916 169.592 143.852L169.592 143.852L169.592 143.852C169.703 143.816 169.813 143.782 169.921 143.754ZM79.7733 163.656L84.8552 156.754L84.8549 156.753C84.511 156.545 84.1672 156.336 83.8009 156.089L78.719 162.991C78.8907 163.096 79.068 163.209 79.2454 163.323L79.2461 163.323C79.4237 163.437 79.6013 163.551 79.7733 163.656ZM83.8008 156.089L78.7189 162.991L77.7859 162.307L77.7857 162.307C77.4745 162.079 77.1962 161.832 76.9179 161.584L76.9182 161.584L76.114 160.869L76.1055 160.881C75.8271 160.633 75.5816 160.367 75.3361 160.1L75.3366 160.099C75.2138 159.966 75.0854 159.823 74.9571 159.68L74.9569 159.68C74.8286 159.537 74.7002 159.394 74.5775 159.261L79.6594 152.359L79.66 152.36C79.9053 152.626 80.1507 152.893 80.4185 153.197L80.418 153.198C80.5408 153.331 80.6717 153.46 80.8027 153.588C80.9238 153.707 81.045 153.826 81.1596 153.949L81.1658 153.94C81.4666 154.226 81.7449 154.473 82.0007 154.683L82.0005 154.683C82.1394 154.806 82.2865 154.925 82.4336 155.044C82.5809 155.162 82.7281 155.281 82.8672 155.405L82.8674 155.404L83.8008 156.089ZM74.577 159.26L79.6589 152.358C79.3909 152.053 79.1229 151.748 78.8877 151.424L78.8872 151.425C78.5972 151.082 78.3399 150.72 78.1154 150.339L73.0335 157.241C73.1834 157.496 73.3625 157.733 73.5416 157.97C73.6311 158.089 73.7207 158.207 73.8066 158.328L73.807 158.328C74.0419 158.651 74.3095 158.956 74.577 159.26ZM73.032 157.238L78.1139 150.336C77.9012 150.05 77.7438 149.783 77.5638 149.477L72.482 156.379C72.6619 156.685 72.8193 156.952 73.032 157.238Z" fill="url(#paint1_linear_273_66704)"/>
<path fill-rule="evenodd" clip-rule="evenodd" d="M87.975 165.592L93.1777 158.67C92.6666 158.768 92.015 158.847 91.4356 158.833L91.4507 158.813C90.371 158.781 89.0437 158.328 87.8825 157.933L87.7854 158.054C87.2564 157.855 86.7078 157.53 86.2061 157.233L86.2058 157.233L86.2057 157.233L86.111 157.177L86.0074 157.306C85.8966 157.251 85.7847 157.194 85.6727 157.135L89.9997 154.994C82.4999 152.991 76.8008 147.779 76.5 147.494L71.4999 154.491C71.8935 155.672 72.7693 156.968 73.7038 158.12C73.7173 158.138 73.7308 158.157 73.7442 158.175C73.7558 158.191 73.7672 158.207 73.7787 158.223L73.7791 158.223C74.014 158.547 74.2816 158.851 74.5491 159.155L74.5669 159.131L74.5677 159.132L74.5496 159.156C74.6723 159.29 74.8007 159.432 74.929 159.575L74.9292 159.576C75.0574 159.718 75.1855 159.861 75.3081 159.994L75.3072 159.995C75.5527 160.262 75.7983 160.529 76.0766 160.776L76.1048 160.738C76.5275 161.152 76.8231 161.419 76.891 161.48L77.0574 161.397C77.4202 161.84 77.6838 162.148 77.7578 162.202L77.758 162.202L78.691 162.886L81.3509 159.273L81.3519 159.273L78.6911 162.887C78.8628 162.991 79.0401 163.105 79.2175 163.218L79.2182 163.219C79.3958 163.333 79.5734 163.447 79.7454 163.551L83.7797 158.072L83.7808 158.071L79.7462 163.551C80.0912 163.768 80.4581 163.973 80.8168 164.154C81.3055 164.497 82.1314 164.768 82.7005 164.956C82.7983 164.988 82.8885 165.018 82.9682 165.045L82.994 165.01C84.0059 165.378 85.4625 165.684 86.3509 165.714L86.3357 165.735C86.8971 165.713 87.4585 165.69 87.975 165.592Z" fill="url(#paint2_linear_273_66704)"/>
<g style="mix-blend-mode:lighten" filter="url(#filter1_f_273_66704)">
<path d="M171.137 131.266C174.856 137.354 173.89 143.065 168.967 144.011L93.1193 158.773C88.1967 159.719 81.2522 155.584 77.5332 149.496L20.1816 55.3042C16.4953 49.1976 17.4615 43.4864 22.3841 42.5401L98.2093 27.7404C103.099 26.8134 110.099 30.9678 113.785 37.0744L171.137 131.266Z" fill="url(#paint3_linear_273_66704)" fill-opacity="0.6"/>
</g>
<path d="M171.137 131.266C174.856 137.354 173.89 143.065 168.967 144.011L93.1193 158.773C88.1967 159.719 81.2522 155.584 77.5332 149.496L20.1816 55.3042C16.4953 49.1976 17.4615 43.4864 22.3841 42.5401L98.2093 27.7404C103.099 26.8134 110.099 30.9678 113.785 37.0744L171.137 131.266Z" fill="url(#paint4_linear_273_66704)"/>
<defs>
<filter id="filter0_f_273_66704" x="2.81221" y="38.3171" width="162.629" height="137.3" filterUnits="userSpaceOnUse" color-interpolation-filters="sRGB">
<feFlood flood-opacity="0" result="BackgroundImageFix"/>
<feBlend mode="normal" in="SourceGraphic" in2="BackgroundImageFix" result="shape"/>
<feGaussianBlur stdDeviation="3.38735" result="effect1_foregroundBlur_273_66704"/>
</filter>
<filter id="filter1_f_273_66704" x="9.47693" y="19.1425" width="172.39" height="148.234" filterUnits="userSpaceOnUse" color-interpolation-filters="sRGB">
<feFlood flood-opacity="0" result="BackgroundImageFix"/>
<feBlend mode="normal" in="SourceGraphic" in2="BackgroundImageFix" result="shape"/>
<feGaussianBlur stdDeviation="4.23419" result="effect1_foregroundBlur_273_66704"/>
</filter>
<linearGradient id="paint0_linear_273_66704" x1="73.5344" y1="153.913" x2="7.99884" y2="44.7159" gradientUnits="userSpaceOnUse">
<stop stop-color="#EEB94E"/>
<stop offset="0.95625" stop-color="#E29F33"/>
</linearGradient>
<linearGradient id="paint1_linear_273_66704" x1="208.487" y1="151.52" x2="81.1579" y2="175.759" gradientUnits="userSpaceOnUse">
<stop stop-color="#FDF0DD"/>
<stop offset="1" stop-color="#EEB94C"/>
</linearGradient>
<linearGradient id="paint2_linear_273_66704" x1="104.401" y1="168.402" x2="81.8522" y2="177.857" gradientUnits="userSpaceOnUse">
<stop stop-color="#FDF0DD"/>
<stop offset="1" stop-color="#EEB94C"/>
</linearGradient>
<linearGradient id="paint3_linear_273_66704" x1="169.334" y1="139.792" x2="4.89432" y2="94.9115" gradientUnits="userSpaceOnUse">
<stop stop-color="#FFA361"/>
<stop offset="1" stop-color="#FD2222"/>
</linearGradient>
<linearGradient id="paint4_linear_273_66704" x1="172.273" y1="135.071" x2="10.021" y2="73.4678" gradientUnits="userSpaceOnUse">
<stop stop-color="#F9D27A"/>
<stop offset="1" stop-color="#FCC432"/>
</linearGradient>
</defs>
</svg>

<svg width="182" height="199" fill="none" xmlns="http://www.w3.org/2000/svg"><g filter="url(#a)"><path d="M156.692 140.05c3.427 5.593 2.28 10.998-2.573 12.061l-74.796 16.548c-4.853 1.063-11.509-2.582-14.936-8.175l-52.85-86.552c-3.396-5.613-2.249-11.017 2.605-12.08L88.917 45.27c4.82-1.043 11.529 2.617 14.924 8.23l52.851 86.551Z" fill="#0E0D44" fill-opacity=".3"/></g><path fill-rule="evenodd" clip-rule="evenodd" d="M14.011 51.436c-1.701 2.288-1.501 6.078.784 10.182l.337.572v.002l57.35 94.192 5.083-6.902L20.213 55.29v-.001l-.337-.573-.01.015c-2.026-3.872-2.394-7.973-.796-10.166l-5.059 6.871Z" fill="url(#b)"/><path fill-rule="evenodd" clip-rule="evenodd" d="m172.257 142.018-.193.262-.056.063a2.636 2.636 0 0 0-.207.25l-.004.007c-.173.153-.346.305-.486.439l-5.082 6.902c.088-.077.166-.15.245-.222.079-.072.158-.144.246-.221l.071-.097c.042-.053.089-.104.135-.156.073-.081.146-.163.206-.25h.001l-.001.002 5.082-6.902c.033-.02.043-.077.043-.077Zm-1.001 1-5.082 6.902c-.174.154-.37.269-.599.404l-.002.003c-.23.135-.482.232-.734.33l5.082-6.902c.251-.097.503-.194.732-.329l.002-.003c.23-.135.427-.251.601-.405Zm-1.335.736-5.082 6.902a3.848 3.848 0 0 1-.95.254l-.003.004-75.847 14.761-.003.003-.033.02.071-.096-.071.095c-.517.098-1.078.12-1.64.143l.016-.021c-.889-.03-2.345-.336-3.357-.705l-.026.035-.268-.089c-.569-.187-1.395-.459-1.883-.801a13.529 13.529 0 0 1-1.07-.603l5.08-6.902c.38.239.787.463 1.18.657l.104-.129.095.056c.502.297 1.05.621 1.58.82l.096-.121c1.162.396 2.489.848 3.569.881l-.016.02a8.575 8.575 0 0 0 1.642-.145l.013-.017.002-.003 75.843-14.76.003-.005c.214-.026.422-.092.626-.156.111-.036.221-.07.329-.098Zm-90.148 19.902 5.082-6.902v-.001a24.554 24.554 0 0 1-1.054-.664l-5.082 6.902c.172.105.349.218.526.332h.001c.178.114.355.228.527.333Zm4.028-7.567-5.082 6.902-.933-.684c-.311-.228-.59-.475-.868-.723l-.804-.715-.008.012a10.902 10.902 0 0 1-.77-.781v-.001a40.395 40.395 0 0 1-.379-.419 41.577 41.577 0 0 0-.38-.419l5.082-6.902.001.001c.245.266.49.533.758.837v.001c.123.133.254.262.385.39.12.119.242.238.357.361l.006-.009c.3.286.579.533.835.743.138.123.285.242.433.361.147.118.294.237.433.361v-.001l.934.685Zm-9.224 3.171 5.082-6.902c-.268-.305-.536-.61-.771-.934v.001a7.861 7.861 0 0 1-.773-1.086l-5.081 6.902c.15.255.328.492.508.729.09.119.179.237.265.358.235.323.502.628.77.932Zm-1.545-2.022 5.082-6.902a9.057 9.057 0 0 1-.55-.859l-5.082 6.902c.18.306.337.573.55.859Z" fill="url(#c)"/><path fill-rule="evenodd" clip-rule="evenodd" d="m87.975 165.592 5.203-6.922a8.674 8.674 0 0 1-1.742.163l.015-.02c-1.08-.032-2.407-.485-3.569-.88l-.097.121c-.529-.199-1.077-.524-1.579-.821l-.095-.056-.104.129c-.11-.055-.222-.112-.334-.171L90 154.994c-7.5-2.003-13.2-7.215-13.5-7.5l-5 6.997c.394 1.181 1.27 2.477 2.204 3.629l.04.055.035.048c.235.324.503.628.77.932l.018-.024v.001l-.017.024.379.419v.001c.128.142.257.285.38.418l-.002.001c.246.267.491.534.77.781l.028-.038c.422.414.718.681.786.742l.166-.083c.363.443.627.751.7.805h.001l.933.684 2.66-3.613-2.66 3.614c.172.104.35.218.526.331l.001.001c.178.114.355.228.527.332l4.035-5.479v-.001l-4.034 5.48c.345.217.712.422 1.07.603.49.343 1.315.614 1.885.802l.267.089.026-.035c1.012.368 2.469.674 3.357.704l-.015.021c.561-.022 1.123-.045 1.639-.143Z" fill="url(#d)"/><g style="mix-blend-mode:lighten" filter="url(#e)"><path d="M171.137 131.266c3.719 6.088 2.753 11.799-2.17 12.745l-75.848 14.762c-4.922.946-11.867-3.189-15.586-9.277L20.182 55.304c-3.687-6.106-2.72-11.818 2.202-12.764l75.825-14.8c4.89-.927 11.89 3.228 15.576 9.334l57.352 94.192Z" fill="url(#f)" fill-opacity=".6"/></g><path d="M171.137 131.266c3.719 6.088 2.753 11.799-2.17 12.745l-75.848 14.762c-4.922.946-11.867-3.189-15.586-9.277L20.182 55.304c-3.687-6.106-2.72-11.818 2.202-12.764l75.825-14.8c4.89-.927 11.89 3.228 15.576 9.334l57.352 94.192Z" fill="url(#g)"/><defs><linearGradient id="b" x1="73.534" y1="153.913" x2="7.999" y2="44.716" gradientUnits="userSpaceOnUse"><stop stop-color="#EEB94E"/><stop offset=".956" stop-color="#E29F33"/></linearGradient><linearGradient id="c" x1="208.487" y1="151.52" x2="81.158" y2="175.759" gradientUnits="userSpaceOnUse"><stop stop-color="#FDF0DD"/><stop offset="1" stop-color="#EEB94C"/></linearGradient><linearGradient id="d" x1="104.401" y1="168.402" x2="81.852" y2="177.857" gradientUnits="userSpaceOnUse"><stop stop-color="#FDF0DD"/><stop offset="1" stop-color="#EEB94C"/></linearGradient><linearGradient id="f" x1="169.334" y1="139.792" x2="4.894" y2="94.912" gradientUnits="userSpaceOnUse"><stop stop-color="#FFA361"/><stop offset="1" stop-color="#FD2222"/></linearGradient><linearGradient id="g" x1="172.273" y1="135.071" x2="10.021" y2="73.468" gradientUnits="userSpaceOnUse"><stop stop-color="#F9D27A"/><stop offset="1" stop-color="#FCC432"/></linearGradient><filter id="a" x="2.812" y="38.317" width="162.629" height="137.3" filterUnits="userSpaceOnUse" color-interpolation-filters="sRGB"><feFlood flood-opacity="0" result="BackgroundImageFix"/><feBlend in="SourceGraphic" in2="BackgroundImageFix" result="shape"/><feGaussianBlur stdDeviation="3.387" result="effect1_foregroundBlur_273_66704"/></filter><filter id="e" x="9.477" y="19.142" width="172.39" height="148.234" filterUnits="userSpaceOnUse" color-interpolation-filters="sRGB"><feFlood flood-opacity="0" result="BackgroundImageFix"/><feBlend in="SourceGraphic" in2="BackgroundImageFix" result="shape"/><feGaussianBlur stdDeviation="4.234" result="effect1_foregroundBlur_273_66704"/></filter></defs></svg>
